X:1
T:Title
%%score { ( 1 3 ) | 2 }
L:1/8
M:4/4
K:Bb
V:1 treble nm="Grand Piano"
V:3 treble 
V:2 bass 
V:1
 z4 z2[Q:1/4=88] [DF][CE] | [B,D][DF][DB][Dc] BAGF | AGFE D2 [DF][DF] | =EEE[DF] [EG][EG][EA][EB] | %4
 c6 z2 | D[DF][DB][Ec] [Fd][Fd][DB][FA] |[M:9/8] [EG][EG][Gc] [Fd] [Ee]2- [Ee][Fd][Gc] | %7
[M:4/4] BFBc ddcc |[M:3/4] [DB]6 |[M:1/4] [DF][CE] |[M:4/4] [B,D][DF][DB][Ec] [Fd][DB][Ge][^FB] | %11
 [Fd]6 [Fd][Fd] | [=Ec][EG][EG][EA] [EB][EB][Ec][Ed] | c6 FE | D[DF][DB][Ec] [Fd]2 [DB][FA] | %15
[M:9/8] [EG][EG][Gc] [Fd] [Ee]2- [Ee][Fd][Gc] |[M:4/4] BFBc ddcc |[M:3/4] [DB]6 |] %18
V:2
 z4 z2 [B,,B,][B,,B,] | [B,,F,][B,,B,][B,,F,][B,,B,] [F,CE][F,CE][F,B,E][F,A,E] | %2
 [F,CE][F,B,E][F,A,C][F,A,C] [B,,F,B,]2 [B,,B,][B,,B,] | %3
 [C,B,C][C,B,C][C,B,C][C,B,] [C,B,][C,B,][C,A,][C,G,] | [F,E]6 [F,A,C][F,C] | %5
 [B,,F,B,][B,,B,][B,,B,][B,,B,] [B,,B,][B,,B,][B,,B,][D,B,] | %6
[M:9/8] [E,B,][E,B,][E,B,] [D,=B,] [C,C]2- [C,C][D,B,][E,C] | %7
[M:4/4] [F,DF][F,B,D][F,B,D][F,A,E] [F,B,F][F,B,F][F,A,E][F,A,E] |[M:3/4] [B,,B,]6 | %9
[M:1/4] [B,,B,][B,,B,] |[M:4/4] [B,,F,][B,,B,][B,,B,][B,,B,] [B,,B,][B,,B,][B,,B,][B,,B,] | %11
 [B,,B,]6 [B,,B,][B,,B,] | [C,B,][C,B,][C,B,][C,A,] [C,G,][C,G,][C,A,][C,B,] | %13
 [F,A,E]6 [F,A,C][F,C] | [B,,F,B,][B,,B,][B,,B,][B,,B,] [B,,B,]2 [B,,B,][D,B,] | %15
[M:9/8] [E,B,][E,B,][E,B,] [D,=B,] [C,C]2- [C,C][D,B,][E,C] | %16
[M:4/4] [F,DF][F,B,D][F,B,D][F,A,E] [F,B,F][F,B,F][F,A,E][F,A,E] |[M:3/4] [B,,B,]6 |] %18
V:3
 x8 | x8 | x8 | x8 | z2 G,2 A,2 FE | x8 |[M:9/8] x9 |[M:4/4] x8 |[M:3/4] x6 |[M:1/4] x2 | %10
[M:4/4] x8 | x8 | x8 | x8 | x8 |[M:9/8] x9 |[M:4/4] x8 |[M:3/4] x6 |] %18

